X: 020498
T: Baltimore Salute
C: Josie McDermott
S: "Treoir" 
Z: B.Black
M: 4/4
L: 1/8
R: reel
K: G
A | B2 eB dBAc | B2 GB AGEG | DG G2 GABd |\
egfB ABGA |
B2 eB dBAc | B2 GB AGEG | DG G2 GABd |\
egdB G3 :|
A | BG G2 gG G2 | gdeg dG G2 | G2 GA BABd |\
eaag a2 ga |
bgab ge e2 | gdeg dG G2 | G2 EG DGge |\
dBAB G3 :|
